X:88
M:C|
L:1/8
K:G
g|fdgd BGGB|cAag fdef|gfgd BGGB|cedc BGG:|
c|BGdG BGGB|cAeA cAAc|BGdG BGGB|cedc BGGc|

